X:7
T:Lady Salisbury's Whim. THO5.007
M:6/8
L:1/8
B:Thompson's Complete Collection of 200 Favourite Dances Vol.5
F:https://www.libraryofdance.org/manuals/1780c-Thompson-Compleat-5.pdf
N:Final note changed from dotted crotchet to correct musical error.
Z:vmp. Peter Dunk 2024
Q:3/8=105
K:G
d|gfg dBd|gfg dBd|gfe dcB|ABG FED|
gfg dBd|gfg dBd|edc BAG|d3-d2:|
|:d|def gfe|fga bag|aba bag|(g3 f2) d|
gfe dcB|edc BAG|efg a2b|g3 "^NB"G2:|
W:
W:Cast off two couples, up again ./. Right hands
W:across left back again ./: Lead down the
W:middle and up again :/. La Pousset :/:

